X: 42941
T: William Nicholson's
R: jig
M: 6/8
K: Bminor
|:Bag f2e|fBB f2e|Bag f2c|eAA cAA|
Bag f2e|fBB f2g|agf e2f|eAA cAA:|
|:fBB dBB|fBB c2B|fBB def|eAA cAA|
fBB dBB|fBB f2g|agf e2f|eAA cAA:|

